packages/bezier-icons/icons/clock-filled.svg

<svg width="24" height="24" viewBox="0 0 24 24" fill="none" xmlns="http://www.w3.org/2000/svg">
<path fill-rule="evenodd" clip-rule="evenodd" d="M2 11.999C2 17.5144 6.4846 21.999 12 21.999C17.5154 21.999 22 17.5144 22 11.999C22 6.48443 17.5152 2 12 2C6.48477 2 2 6.48443 2 11.999ZM13 6C13.5523 6 14 6.44771 14 7V11.3156L16.6397 12.6671C17.1312 12.9188 17.3257 13.5214 17.074 14.013C16.8223 14.5046 16.2197 14.6991 15.7281 14.4473L12.5442 12.8171C12.2102 12.646 12 12.3023 12 11.927V7C12 6.44772 12.4477 6 13 6Z" fill="#313234"/>
</svg>

<svg xmlns="http://www.w3.org/2000/svg" width="24" height="24" fill="none" viewBox="0 0 24 24"><path fill="#313234" fill-rule="evenodd" d="M2 11.999c0 5.515 4.485 10 10 10s10-4.485 10-10S17.515 2 12 2 2 6.484 2 11.999M13 6a1 1 0 0 1 1 1v4.316l2.64 1.351a1 1 0 0 1-.912 1.78l-3.184-1.63a1 1 0 0 1-.544-.89V7a1 1 0 0 1 1-1" clip-rule="evenodd"/></svg>
